X: 486
T: Was ein junges mädchen liebt.	 Op. 74
C: Fryderyk Chopin
%%abc-version 2.0
%%abcx-abcm2ps-target-version 5.9.1 (29 Sep 2008)
%%abc-creator hum2abc beta
%%abcx-conversion-date 2021/10/03 11:23:26
%%abc-edited-by Mateusz Mrugas
%%abc-edited-by Wojciech Jakubiak-Danek
%%abcx-initial-encoding-date 2020-01-29
%%humdrum-veritas 4235087222
%%humdrum-veritas-data 3401111533
%%linebreak <none>
%%barnumbers 0
L: 1/8
M: 6/8
N: Derived from 074-1-Sam-005.krn
P: 16 Polnische Lieder
Q: "M. M. [quarter-dot] = 72."
V: 1 clef=treble
V: 2 clef=treble
V: 3 clef=bass
K: A
[V:1] z6 | 
[V:2] [d2G2][^A^^F][B2G2][cF] | 
[V:3] B,2CD2^A, & E,6- | 
[V:1] z6 | 
[V:2] [d2G2][^A^^F][B2G2][cF] | 
[V:3] B,2CD2^A, & E,6 | 
[V:1] z6 | 
[V:2] {/e}[d6G6]- | 
[V:3] [B,6E,6]- | 
[V:1] z6 | 
[V:2] [d3G3]z2z | 
[V:3] [B,3E,3]z2z | 
[V:1] A2B c ^D E | 
[V:2] E,CA E,CA | 
[V:3] [A,,3A,,,3][A,,3A,,,3] | 
[V:1] G2FE2z | 
[V:2] ^D,^B,A E,CA | 
[V:3] [A,,3A,,,3][A,,3A,,,3] | 
[V:1] BF A G F E | 
[V:2] E,DG E,DG | 
[V:3] [A,,3A,,,3][A,,3A,,,3] | 
[V:1] e3-e2c | 
[V:2] E,CA E,CA | 
[V:3] [A,,3A,,,3][A,,3A,,,3] | 
[V:1] eA B c ^D E | 
[V:2] E,CA E,CA | 
[V:3] [A,,3A,,,3][A,,3A,,,3] | 
[V:1] G2F EG A | 
[V:2] ^D,^B,A E,CA | 
[V:3] [A,,3A,,,3][A,,3A,,,3] | 
[V:1] c2B AG F | 
[V:2] A,CA A,CA | 
[V:3] F,,6 | 
[V:1] ^E2=G !fermata!z =E3/ E/ | 
[V:2] G,C^E !fermata!Gz2 | 
[V:3] [C,2C,,2]>-!fermata![C,2C,,2]z2 | 
[V:1] G/ F< E e/ ^d/ e/ B e | 
[V:2] z [GD][GD] z [GD][GD] | 
[V:3] E,z2E,z2 | 
[V:1] c/ B/ A c ^B/ c/ A F | 
[V:2] z [AEC][AEC] z [AFC][AFC] | 
[V:3] A,z2A,,z2 | 
[V:1] ^D/ F< ^A B/ c/ B/ A B | 
[V:2] z [=A^DB,][ADB,] z [ADB,][ADB,] | 
[V:3] B,,z2B,,z2 | 
[V:1] G/ =A/ B E !accent!!fermata!=F> E ^D/ E/ | 
[V:2] z[G2=D2B,2]z2z | 
[V:3] E,3z2z | 
[V:1] eA B c ^D E | 
[V:2] E,CA E,CA | 
[V:3] [A,,3A,,,3][A,,3A,,,3] | 
[V:1] G2F E G A | 
[V:2] ^D,^B,A E,CA | 
[V:3] [A,,3A,,,3][A,,3A,,,3] | 
[V:1] BF A G F E | 
[V:2] E,DG E,DG | 
[V:3] [A,,3A,,,3][A,,3A,,,3] | 
[V:1] E2>-E2A c | 
[V:2] E,CA E,CA | 
[V:3] A,,3A,,3 | 
[V:1] eA B c ^D E | 
[V:2] E,CA E,CA | 
[V:3] A,,3A,,3 | 
[V:1] G2F EG A | 
[V:2] ^D,^B,A E,CA | 
[V:3] A,,3A,,3 | 
[V:1] B c B G F G | 
[V:2] =B,FA B,DG | 
[V:3] D,3E,3 | 
[V:1] B2Az2z | 
[V:2] CEA e/f/g/a/b/c'/ | 
[V:3] A,,2>A,,2E,C | 
[V:1] z6 | 
[V:2] ^ab/=a/=g/f/ ^e!trill!f/=e/d/B/ | 
[V:3] [C=G,E,][D2F,2D,2]E,2x & x2>E,2^G,D | 
[V:1] z6 | 
[V:2] A2c/d/ e/f/g/a/b/c'/ | 
[V:3] A,,E,C A,,E,C | 
[V:1] z6 | 
[V:2] ^ab/=a/^g/f/ ^e!trill!f/=e/d/B/ | 
[V:3] [C=G,E,][D2F,2D,2]E,2x & x2>E,2^G,D | 
[V:1] z6 |]  
[V:2] A2zz2z |]  
[V:3] A,,E,CA,,2z |]
